X:1
T:Consolations
T:Hungarian Rhapsody No. 15
T:Franz Liszt
T:Rákóczi March
C:Franz Liszt
%%score { ( 1 8 ) | ( 2 9 ) | ( 3 10 ) | ( 4 7 ) | 5 | 6 }
L:1/8
Q:1/4=180
M:4/4
K:C
V:1 treble nm="Piano" snm="Pno."
V:8 treble 
V:2 bass 
V:9 bass 
V:3 treble 
V:10 treble 
V:4 bass 
V:7 bass 
V:5 treble 
V:6 bass 
V:1
"^Allegro animato." z8 | z8 | z8 | z8 | z8 | z8 | z8 | z8 | z8 | z8 | z8 | z8 | z8 | %13
 z8[Q:1/4=60] ||[Q:1/4=150]"^Tempo di Marcia animato." z8 | z8 | z8 | z8 | z8[Q:1/4=155] | %19
[Q:1/4=160] z8 | z8 | z8 | z8 | z8 | z8 z/ | z8 z/ | z8[Q:1/4=165] |[Q:1/4=170] z8 | z8 | z4 z2 |: %30
 z2[Q:1/4=160] | z8 | z8 | z8 |[Q:1/4=155] z8[Q:1/4=150][Q:1/4=145][Q:1/4=140] | z8[Q:1/4=170] | %36
"^""^Ossia." (c'e' .c'2) (b^d' .b2) | (ac' .a2) (^gb .g2) | (fa .f2) (!^!e3[Q:1/4=175] ^g) | %39
"_cresc." (!^!e3 ^g)[Q:1/4=180] (e.g/) z/[Q:1/4=185] (e.g/) z/ |!f!!<(! .e.B.^G.B .e.B.e.^g!<)! | %41
[Q:1/4=170] z8[Q:1/4=180] | z8[Q:1/4=170] |[Q:1/4=160] z8[Q:1/4=150][Q:1/4=140] | %44
[Q:1/4=185] z8[Q:1/4=190] | z8 | z8 |[Q:1/4=170] z8[Q:1/4=160] |[Q:1/4=180] z8[Q:1/4=185] | %49
 z8[Q:1/4=190] |[Q:1/4=195] z8 |[Q:1/4=200] z8 | z8[Q:1/4=180] | %53
[Q:1/4=200] z8[Q:1/4=180][Q:1/4=200] |[Q:1/4=175] z8[Q:1/4=180] |[Q:1/4=185] z8[Q:1/4=190] | %56
 z8[Q:1/4=180] |[Q:1/4=170] z8[Q:1/4=160] | z4 z2 :|[K:A][Q:1/4=170]"^Un poco meno allegro." z2 | %60
 z8 | z8[Q:1/4=140][Q:1/4=180] | z8 | z8[Q:1/4=160][Q:1/4=180] | z8 | z8[Q:1/4=160] | %66
 z8[Q:1/4=170] | z8[Q:1/4=160][Q:1/4=180] | z8 | z8[Q:1/4=160][Q:1/4=170] | z8 | z8[Q:1/4=180] | %72
 z8 | z8[Q:1/4=160][Q:1/4=180] | z8 | z8[Q:1/4=160] | z8[Q:1/4=170] | z8[Q:1/4=180] | %78
 z8[Q:1/4=170] |[Q:1/4=160] z4[Q:1/4=140] z2[Q:1/4=150] ||[Q:1/4=160] z2 | z8 | z8[Q:1/4=150] | %83
 z8[Q:1/4=140][Q:1/4=160] | z8[Q:1/4=170] | z8[Q:1/4=160] | z8[Q:1/4=150][Q:1/4=140][Q:1/4=130] | %87
[Q:1/4=150] z8[Q:1/4=160] |[Q:1/4=170] z8 |[Q:1/4=180] z8 | z8 | z8[Q:1/4=190] | z8[Q:1/4=180] | %93
 z8 | z8 | z8 | z8 | z8 | z8 | z8 | z8 | z8 |[Q:1/4=160] z4 z2[Q:1/4=150][Q:1/4=120] || %103
[Q:1/4=140] z2 | z8 | z8 | z8[Q:1/4=130][Q:1/4=200][Q:1/4=60] | %107
[Q:1/4=100] z8[Q:1/4=115][Q:1/4=130][Q:1/4=145][Q:1/4=160] | z8 | %109
 z8[Q:1/4=150][Q:1/4=140][Q:1/4=130] |[Q:1/4=150] z8[Q:1/4=160] |[Q:1/4=165] z8[Q:1/4=170] | %112
[Q:1/4=180] z8[Q:1/4=185] |[Q:1/4=190] z8[Q:1/4=170][Q:1/4=160] |[Q:1/4=130] z8[Q:1/4=190] | %115
 z8[Q:1/4=180] | z8 | z8 | z8 | z8 |[Q:1/4=185] z8[Q:1/4=190] | z8 | %122
 z8[Q:1/4=180][Q:1/4=170][Q:1/4=160][Q:1/4=190] | z8[Q:1/4=180][Q:1/4=170][Q:1/4=160][Q:1/4=180] | %124
 z8[Q:1/4=170][Q:1/4=160][Q:1/4=170] | %125
[Q:1/4=160] z8[Q:1/4=150][Q:1/4=140][Q:1/4=130][Q:1/4=120][Q:1/4=160] |[Q:1/4=170] z8[Q:1/4=180] | %127
 z8 | z8 |[Q:1/4=170] z8[Q:1/4=160][Q:1/4=150][Q:1/4=130][Q:1/4=100] | z8[Q:1/4=160] | %131
[Q:1/4=170] z8 | z8 | z8 | z8 z[Q:1/4=160] |[K:C] z8[Q:1/4=150] | %136
[Q:1/4=140] z8[Q:1/4=110][Q:1/4=160] |[Q:1/4=80] z8 |[Q:1/4=160] z8[Q:1/4=150] | %139
[Q:1/4=140] z8[Q:1/4=110][Q:1/4=120] |[Q:1/4=80] z8 |[Q:1/4=160] z8[Q:1/4=150] | %142
[Q:1/4=160] z8[Q:1/4=150][Q:1/4=140][Q:1/4=130][Q:1/4=120] |[Q:1/4=100] z8 |[Q:1/4=200] z8 | z8 | %146
 z8 | z8 | z8 | z8[Q:1/4=190][Q:1/4=180][Q:1/4=170][Q:1/4=160] ||S z2 | z8[Q:1/4=170] | %152
 z8[Q:1/4=160] |[Q:1/4=170] z8 |[Q:1/4=160] z8 | z8[Q:1/4=165] |[Q:1/4=170] z8[Q:1/4=175] | %157
[Q:1/4=180] z8[Q:1/4=170][Q:1/4=160][Q:1/4=140] |[Q:1/4=160] z8 |[Q:1/4=170] z8 | %160
[Q:1/4=160] z8[Q:1/4=150] |[Q:1/4=170] z8 z/[Q:1/4=175][Q:1/4=180] | %162
[Q:1/4=170] z8 z/[Q:1/4=175][Q:1/4=180] |[Q:1/4=170] z8[Q:1/4=175] |[Q:1/4=180] z8 | %165
 z8[Q:1/4=175][Q:1/4=170] |[Q:1/4=160] z4 z2 z z/ || z/ | z8 | z8[Q:1/4=175] | %170
 z8[Q:1/4=180][Q:1/4=175] |[Q:1/4=170] z8[Q:1/4=160][Q:1/4=150][Q:1/4=140] | z8 |[Q:1/4=170] z8 | %174
[Q:1/4=175] z8 |[Q:1/4=180] z8 |[Q:1/4=185] z8 |[Q:1/4=190] z8 |[Q:1/4=195] z8 |[Q:1/4=200] z8 | %180
 z8[Q:1/4=190][Q:1/4=180][Q:1/4=170] |[Q:1/4=150] z8[Q:1/4=180] | z8 | %183
[Q:1/4=170] z8[Q:1/4=160][Q:1/4=150] |[Q:1/4=180] z8[Q:1/4=185] | z8[Q:1/4=190] | z8 | %187
[Q:1/4=170] z8[Q:1/4=140] |[Q:1/4=180] z8[Q:1/4=185] | z8[Q:1/4=190][Q:1/4=195] |[Q:1/4=200] z8 | %191
[Q:1/4=190] z8 | z8 | z8[Q:1/4=175][Q:1/4=160] |[Q:1/4=180] z8[Q:1/4=190] | z8 | %196
[Q:1/4=180] z8[Q:1/4=170][Q:1/4=160][Q:1/4=150] | %197
[Q:1/4=140] z8[Q:1/4=130][Q:1/4=120][Q:1/4=100][Q:1/4=80] || %198
[K:A][Q:1/4=160] z8[Q:1/4=170][Q:1/4=165] | z8[Q:1/4=160] |[Q:1/4=170] z8[Q:1/4=165] | %201
 z8[Q:1/4=160] |[Q:1/4=170] z8[Q:1/4=165] | z8[Q:1/4=160] |[Q:1/4=165] z8 | %205
[Q:1/4=175] z8[Q:1/4=180] | z8 | z8 | z8 |[Q:1/4=185] z8 |[Q:1/4=190] z8 | %211
 z8[Q:1/4=180][Q:1/4=170] |[Q:1/4=185] z8[Q:1/4=190] | z8 | z8 | z8 | z8[Q:1/4=200] | %217
[Q:1/4=210] z8[Q:1/4=220] |[Q:1/4=180] z8[Q:1/4=220] | z8 |[Q:1/4=180] z8[Q:1/4=220] | z8 | %222
 z8[Q:1/4=200] |[Q:1/4=180] z8[Q:1/4=160] |[Q:1/4=180] z8[Q:1/4=170] | %225
[Q:1/4=150] z8 z[Q:1/4=200][Q:1/4=160] |[Q:1/4=200] z8 z[Q:1/4=120] |] %227
V:2
 z8 | z8 | z8 | z8 | z8 | z8 | z8 | z8 | z8 | z8 | z8 | z8 | z8 | z8 || z8 | z8 | z8 | z8 | z8 | %19
 z8 | z8 | z8 | z8 | z8 | z8 z/ | z8 z/ | z8 | z8 | z8 | z4 z2 |: z2 | z8 | z8 | z8 | z8 | z8 | %36
[K:treble]"^" c3- c B3- B | A3- A ^G3- G |[K:bass] F3- F x3 x | %39
 ([B,E]E, .[B,E]) z ([B,E].E,/) z/ ([B,E].E,/) z/ | %40
 [B,E] z !arpeggio![E,^G,B,E] z !arpeggio![B,,E,G,B,] z !arpeggio![^G,,B,,E,G,] z | z8 | z8 | z8 | %44
 z8 | z8 | z8 | z8 | z8 | z8 | z8 | z8 | z8 | z8 | z8 | z8 | z8 | z8 | z4 z2 :|[K:A] z2 | z8 | z8 | %62
 z8 | z8 | z8 | z8 | z8 | z8 | z8 | z8 | z8 | z8 | z8 | z8 | z8 | z8 | z8 | z8 | z8 | z4 z2 || z2 | %81
 z8 | z8 | z8 | z8 | z8 | z8 | z8 | z8 | z8 | z8 | z8 | z8 | z8 | z8 | z8 | z8 | z8 | z8 | z8 | %100
 z8 | z8 | z4 z2 || z2 | z8 | z8 | z8 | z8 | z8 | z8 | z8 | z8 | z8 | z8 | z8 | z8 | z8 | z8 | z8 | %119
 z8 | z8 | z8 | z8 | z8 | z8 | z8 | z8 | z8 | z8 | z8 | z8 | z8 | z8 | z8 | z8 z |[K:C] z8 | z8 | %137
 z8 | z8 | z8 | z8 | z8 | z8 | z8 | z8 | z8 | z8 | z8 | z8 | z8 || z2 | z8 | z8 | z8 | z8 | z8 | %156
 z8 | z8 | z8 | z8 | z8 | z8 z/ | z8 z/ | z8 | z8 | z8 | z4 z2 z z/ || z/ | z8 | z8 | z8 | z8 | %172
 z8 | %173
[K:treble]!f!"^gliss.""^Facilité"!8va(! (17:12:17(!>!c''/b'/a'/g'/f'/e'/d'/c'/!8va)!b/a/g/f/e/d/c/B/A/ .G) z | %174
!8va(! (17:12:17(!>!a'/g'/f'/e'/d'/c'/b/a/!8va)!g/f/e/d/c/B/A/G/F/ .E) z | %175
 (17:12:17(!>!f'/e'/d'/c'/b/a/g/f/e/d/c/B/A/G/F/E/D/ .C) z | %176
 (17:12:17(!>!d'/c'/b/a/g/f/e/d/c/B/A/G/F/E/D/C/B,/ .A,) z | %177
 (17:12:17(!>!b/a/g/f/e/d/c/B/A/G/F/E/D/C/B,/A,/G,/ .F,) z | z8 | %179
 x2 x2 (3x"^Ossia."!8va(! e'^g'(3e''g'f'' | (3e'e''^g' (3f''e'e'' (3g'f''e' (3e''g'f'' | z8!8va)! | %182
 z8 | z8 | z8 | z8 | z8 | z8 | z8 | z8 | z8 | z8 | z8 | z8 | z8 | z8 | z8 | z8 ||[K:A] z8 | z8 | %200
 z8 | z8 | z8 | z8 | z8 | z8 | z8 | z8 | z8 | z8 | z8 | z8 | z8 | z8 | z8 | z8 | z8 | z8 | z8 | %219
 z8 | z8 | z8 | z8 | z8 | z8 | z8 z | z8 z |] %227
V:3
"^tumultuoso" z2 z/[K:bass] z z z z z z/ | z/ z z z z z z z z/ | z/ z z z z z z z z/ | %3
 z/ z z z z z z z z/ | z/ z z z z z z z z/ | z/ z z z z z z z z/ | z/ z z z z z z z z/ | %7
 z/ z z z z z z z z/ | z/ z z z z z z z z/ |[K:treble] z/ z z z z z z z z/ | %10
 z/ z z z z/ x/ x x x/ x | x4 x/!8va(! x/ x x2 | x4 x!8va)! z z2 | z4 z2!ff! .!^![^G,B,D^G]2 || %14
!f! .[A,CA]2 [^G,^G][B,B] .[A,^CA]2 [G,G][B,B] | .[A,^DA]2 .[^G,^G]2 !>![A,DA]4 | %16
!<(! [A,^C^FA][^G,^G][A,A][B,B]!<)! !^![=C_EFc]4 |!f! [C_Ec][B,B][A,A][^G,^G] !^![A,^DA]3 [Cc] | %18
 !>!BAGB !>!AGFA | !>!GFEG !>!FE^DF | (FE) .E.^D (FE) .E.D | (!>!E4 .[E^GBe]) z (3(e^f^g) | %22
 .[Aa]2 [^GB^g][Bdb] .[Aca]2 [GBg][Bdb] | .[Aca]2 .[^GB^g]2 !>![Aca]4 | %24
 x/!<(!!8va(! !^![ac'f'a'][^g^g'][aa'][bb']!<)! !^![c'e'c'']4 | %25
 x/!<(! !^![c'f'c''][bb'][aa']!<)![^g^g'] !^![ac'e'a']3 [c'c''] | %26
 [bb'][aa'][^g^g'][bb'] [aa'][^c^c'][^f^f'][aa'] | %27
 [^g^g'][^f^f'][ee'][gg'] [ff'][ee'][^d^d'][ff'] | %28
 ([^f^f'][ee']) .[ee'].[^d^d'] ([ff'][ee']) .[ee'].[dd'] | (!^![e^gbe']4 .[e'^g'b'e''])!8va)! z |: %30
 z3/2!ff! E/ | .E2 z2 .[E^G]2 z2 | !^![^D^GB]15/2 [EGe]/ | %33
 !^![^D^GB]7/2 [EGe]/ !^![DGB]7/2 [EGe]/ | (!^![^D^GB]8 | .[=DE^GBe]) z z2 z2!p! e2 | %36
 (c'e' .c'2) (bd' .b2) | (ac' .a2) (^gb .g2) | (fa .f2) (!>!e3 ^g) | %39
"_cresc." (!>!e3 ^g) (e.g/) z/ (e.g/) z/ |!f!!<(! eB^GB eBe^g!<)! | %41
!ff! (!^![Be^gb]4 .[egbe']) z (3(e^fg) | .[Aca]2 [^GB^g][Bdb] .[Aca]2 [GBg][Bgb] | %43
 .[Aca]2 .[^GB^g]2 !>![Aca]4 |!8va(! [aa'][bb'] !>![c'c'']3 [bb'] !>![aa']2- | %45
 [aa'][gg'] !>![ff']2- [ff'][ee'][dd'][^c^c'] | .[dfd']2 [^ce^c'][ege'] .[dfd']2 [cec'][ege'] | %47
 .[dfd']2 .[^ce^c']2 !>![dfd']4 | [d'd''][e'e''] !>![f'f'']3 [e'e''] !>![d'd'']2- | %49
 [d'd''][c'c''] !>![bb']3 [aa'][^g^g'][aa'] | .[^g^g'].[bb'] .[e'e'']2!8va)! !^![^G,B,E]4 | %51
!8va(!!<(! .[aa'].[c'c''] .[e'e'']2!8va)!!<)! !^![A,CE]4 | %52
 [B^g][db][Bg][db][K:bass] (!^!F,2 .E,) z |[K:treble] [ca][ec'][ca][ec'][K:bass] (!^!F,2 .E,) z | %54
[K:treble]"_rinforz."!8va(! !^![f'^g'b'f''][e'e''][d'd''][c'c''][bb'][aa'][^gg'][ee']!8va)! | %55
 !^![f^gbf'][ee'][dd'][cc'][Bb][Aa][^Gg][Ee] | .[Ee]2 .[Ee]2 x4 | .[Aca]2 z2!8va(! .[fad'f']2 z2 | %58
 [ac'e'a']4!8va)! z2 :|[K:A]"_dolce""_marcato con grazia"!p! (ce | A4) z2 (ce | A4) z2 (ag) | %62
 (gf) (f^e) (gf) (fe) | .f2 z2 z2 (f'e') | (e'd') (d'c') (e'd') (d'c') | .d'2 z2 z2 (df | %66
 B4) z2 (df | B4) z2!8va(! .[d'b'].[f'd''] | %68
 .[e'c''].[d'b'].[c'a'].[e'c''] .[d'b'].[c'a'].[bg'].[d'b'] | %69
 .[c'a'].[e'c''].[bg'].[d'b'] .[c'a']!8va)! z!p! z2 | z2 (c/e/.A) (c'/e'/.a) z2 | %71
 z2!8va(! (c'/e'/.a) (c''/e''/.a') (3(a'g'g) | (3(g'f'f) (3(f'^e'^e) (3(g'f'f) (3(f'e'e) | %73
 (g'/f'/c'/a/!8va)![I:staff +1]g/f/c/A/)[I:staff -1] .F z!8va(! a'2 | a'2 a'2 a'2 a'2 | %75
 a'2!8va)! x2 .D z z2 | z2 (d/f/.B) (d'/f'/.b) z2 | %77
 z2!8va(! (d'/f'/.b) (d''/f''/.b')!p! .[bd'b'].[d'f'd''] | %78
 .[c'e'c''].[bd'b'].[ac'a'].[c'e'c''] .[bd'b'].[ac'a'].[gbg'].[bd'b'] | %79
 .[ac'a'].[c'e'c''].[gbg'].[bd'b'] .[ac'a'] z!8va)! ||!ff! .A2 | .G2 .=F2 .E2 .D2 | %82
 (!>!C3 D) .E2 z .A | (!>!E3 A) (!>!E3 A) | .E.C[I:staff +1].[A,,A,][I:staff -1].C .E.C.E.A | %85
 (!>!E4 .A) z .[A=ca]2 | (=ge) (=fd) (e=c) (dB) | (=c/d/c/B/c/e/=g/b/{/d'}=c'/b/c'/d'/) e'z/d'/ | %88
!8va(! (=c'/d'/c'/b/c'/e'/=g'/b'/{/d''}=c''/b'/c''/d''/) e''z/d''/ | %89
 =c''/e'/c''/e''/ =g''/=g'/b'/g'/ c''/e'/c''/e''/ g''/g'/b'/g'/ | %90
 =c''/e'/c''/e''/ =g''/=g'/b'/g'/ c''/e'/c''/e''/ g''/g'/b'/g'/ | %91
 .=c''!8va)! z (=c/^c/d/^d/e/=f/!<(!^f/=g/^g/a/^a/b/ | %92
 =c'/^c'/d'/^d'/!8va(!e'/=f'/^f'/=g'/(5:4:5(^g'/a'/^a'/b'/=c''/))!<)!!p! ^c''/e''/c''/e'/ | %93
 a/c'/a/c'/a/c'/a/c'/ a/c'/e'/a'/ c''/e''/c''/e'/ | %94
 a/c'/a/c'/a/c'/a/c'/ a/c'/e'/a'/ c''/a'/g'/c'/ | %95
 c''/g'/f'/c'/ c''/f'/^e'/c'/ c''/g'/f'/c'/ c''/f'/e'/c'/ | %96
 c''/g'/f'/c'/!8va)![I:staff +1]a/f/c/A/[I:staff -1] .F z!8va(! f''/a'/e'/c''/ | %97
 e''/a'/d'/d''/ a'/c'/a'/c''/ e''/a'/d'/d''/ a'/c'/a'/c''/ | %98
 e''/d''/a'/d'/!8va)![I:staff +1]a/f/d/A/[I:staff -1] .D z!8va(! d''/f''/d''/f'/ | %99
 b/d'/b/d'/ b/d'/b/d'/ b/d'/f'/b'/ d''/f''/d''/f'/ | %100
 b/d'/b/d'/b/d'/b/d'/ b/d'/f'/b'/ d''/f'/b'/d''/ | %101
 c''/e'/b'/e''/ a'/e'/c''/e''/ b'/e'/a'/e''/ g'/e'/b'/e''/ | %102
 a'/e'/c''/e''/ g'/e'/b'/e''/ .a'!8va)! z ||!ff! .A2 | .G2 .=F2 .E2 .D2 | (!>!C3 D) .E2 z .A | %106
 (!>!E3 A) (!>!E3 A) | .E.C[I:staff +1].[A,,A,][I:staff -1].C .E.C.E.A | (!>!E4 .A) z .[A=ca]2 | %109
 (=ge) (=fd) (e=c) (dB) | (=c/d/c/B/c/e/=g/b/{/d'}=c'/b/c'/d'/) e'z/d'/ | %111
!8va(! (=c'/d'/c'/b/c'/e'/=g'/b'/{/d''}=c''/b'/c''/d''/) e''z/d''/ | %112
 =c''/e'/c''/e''/ =g''/=g'/b'/g'/ c''/e'/c''/e''/ g''/g'/b'/g'/ | %113
 =c''/e'/c''/e''/ =g''/=g'/b'/g'/ c''/e'/c''/e''/ g''/g'/b'/g'/ | %114
 .=c''!8va)! z (=c/^c/d/^d/!<(!e/=f/^f/=g/^g/a/^a/b/ | %115
 =c'/^c'/d'/^d'/!8va(!e'/=f'/^f'/=g'/(5:4:5(^g'/a'/^a'/b'/=c''/))!<)!!p! ^c''/e''/c''/e'/ | %116
 a/c'/a/c'/a/c'/a/c'/ a/c'/e'/a'/ c''/e''/c''/e'/ | %117
 a/c'/a/c'/a/c'/a/c'/ a/c'/e'/a'/ c''/d''/c''/d''/ | %118
 c''/d''/c''/d''/ c''/d''/c''/d''/ c''/d''/c''/d''/ c''/d''/c''/d''/ | %119
 c''/g'/f'/c'/!8va)![I:staff +1]a/f/c/A/[I:staff -1] .F z!8va(! f''/a'/e''/a'/ | %120
 e''/a'/d''/a'/ d''/a'/c''/a'/ e''/a'/d''/a'/ d''/a'/c''/a'/ | %121
 e''/d''/a'/d'/!8va)![I:staff +1]a/f/d/A/[I:staff -1] .D z!8va(! d''/f''/d''/f'/ | %122
 b/d'/b/d'/b/d'/b/d'/ b/d'/f'/b'/ d''/f''/d''/f'/ | %123
 b/d'/b/d'/b/d'/b/d'/ .b z!p! d''/=f''/d''/=f'/ | %124
 _b/d'/b/d'/b/d'/b/d'/ b/d'/=f'/_b'/ d''/=f''/d''/f'/ | %125
 _b/d'/b/d'/b/d'/b/d'/ .b!pp! z[I:staff +1] _b'/b'/[I:staff -1]_b'/b/ | %126
[I:staff +1] a'/a'/[I:staff -1]a'/a/[I:staff +1] g'/g'/[I:staff -1]_g'/_g/[I:staff +1] =f'/f'/[I:staff -1]=f'/=f/[I:staff +1] _e'/e'/[I:staff -1]_e'/_e/ | %127
[I:staff +1] d'/d'/[I:staff -1]d'/d/ (3d'_e_e'[I:staff +1] =f'/f'/[I:staff -1]=f'/=f/ (3f'_b_b' | %128
 (3=f'=f_b (3f'b_b' (3f'fb (3f'bb' |!>(! (3=f'_b_b' (3f'bb' (3f'bb' (3f'bb'!>)! | %130
 =f' z"^leggieramente"!pp! d'/_e'/=e'/f'/^f'/=g'/^g'/a'/_b'/=b'/=c''/^c''/ | %131
!>!d''/c''/=c''/=b'/_b'/=a'/^g'/=g'/^f'/=f'/=e'/_e'/=d'/^c'/=c'/=b/!8va)! | %132
 _b/a/^g/=g/^f/=f/=e/_e/=d/^c/=c/=B/_B/=A/^G/=G/ | %133
F/=F/E/_E/=D/^C/=C/=B,/[I:staff +1]_B,/=A,/^G,/=G,/^F,/=F,/=E,/_E,/ |[I:staff -1] x8 z | %135
[K:C][K:bass]!p! .[D,F,]2 ([^C,E,]=G,) .[D,F,]2 ([C,E,]G,) | .[D,F,]2 .[^C,E,]2 [D,F,]4 | z8 | %138
!p! .[C,^D,^F,]2 (^E,^G,) .F,2 E,G, | .[^D,^F,]2 .^E,2 [^D,F,]4 | z8 | %141
"_cresc." .[E,G,]2 ([^D,^F,]A,) .G,2 z2 | .^G,2 (=G,^A,) .^G,2 z2 | %143
 (16:8:16^G,,/=G,,/^G,,/!<(!A,,/^A,,/B,,/C,/^C,/D,/^D,/E,/!<)!!>(!F,/E,/D,/=D,/C,/(16:8:16=C,/B,,/!>)!C,/!<(!^C,/D,/^D,/E,/F,/^F,/G,/^G,/!<)!!>(!=G,/F,/=F,/E,/D,/!>)! | %144
[I:staff +1] [=D,,=D,]/[I:staff -1][^D,^D]/!<(![I:staff +1][E,,E,]/[I:staff -1][F,F]/[I:staff +1][^F,,^F,]/[I:staff -1][G,G]/[I:staff +1][^G,,^G,]/[I:staff -1][A,A]/[I:staff +1][^A,,^A,]/[I:staff -1][B,B]/[I:staff +1][B,,B,]/!<)![I:staff -1][^A,^A]/[I:staff +1][=A,,=A,]/[I:staff -1][^G,^G]/[I:staff +1][=G,,=G,]/[I:staff -1][^F,^F]/ | %145
[I:staff +1] [=F,,=F,]/[I:staff -1][^F,^F]/!<(![I:staff +1][G,,G,]/[I:staff -1][^G,^G]/[I:staff +1][A,,A,]/[I:staff -1][K:treble][^A,^A]/[I:staff +1][B,,B,]/[I:staff -1][Cc]/[I:staff +1][^C,^C]/[I:staff -1][Dd]/[I:staff +1][D,D]/!<)![I:staff -1][C^c]/[I:staff +1][=C,=C]/[I:staff -1][B,B]/[I:staff +1][_B,,_B,]/[I:staff -1][=A,=A]/ | %146
"_molto cresc."[I:staff +1] [^G,,^G,]/[I:staff -1][A,A]/!<(![I:staff +1][^A,,^A,]/[I:staff -1][B,B]/[I:staff +1][C,C]/[I:staff -1][^C^c]/[I:staff +1][D,D]/[I:staff -1][^D^d]/[I:staff +1][E,E]/[I:staff -1][Ff]/[I:staff +1][E,E]/!<)![I:staff -1][Dd]/[I:staff +1][D,=D]/[I:staff -1][Cc]/[I:staff +1][C,=C]/[I:staff -1][B,B]/ | %147
[I:staff +1] [_B,,_B,]/[I:staff -1][A,A]/!<(![I:staff +1][^G,,^G,]/[I:staff -1][A,A]/[I:staff +1][B,,B,]/[I:staff -1][=B,B]/[I:staff +1][C,C]/[I:staff -1][^C^c]/[I:staff +1][D,D]/!<)![I:staff -1][^D^d]/[I:staff +1][E,E]/[I:staff -1][Ff]/[I:staff +1][E,E]/[I:staff -1][Dd]/[I:staff +1][D,=D]/[I:staff -1][Cc]/ | %148
[I:staff +1] [C,=C]/[I:staff -1][B,B]/[I:staff +1][_B,,_B,]/[I:staff -1][A,A]/[I:staff +1][^G,,^G,]/[I:staff -1][A,A]/[I:staff +1][B,,B,]/[I:staff -1][=B,B]/[I:staff +1][C,C]/[I:staff -1][^C^c]/[I:staff +1][D,D]/[I:staff -1][^D^d]/[I:staff +1][E,E]/[I:staff -1][Ff]/[I:staff +1][F,F]/[I:staff -1][^G^g]/ | %149
[I:staff +1] [D,D]/!<(![I:staff -1][Bb]/[I:staff +1][B,,B,]/[I:staff -1][dd']/[I:staff +1][^G,,^G,]/!8va(![I:staff -1][ff']/!8va)![I:staff +1][F,,F,]/!8va(![I:staff -1][^g^g']/!8va)![I:staff +1][D,,D,]/!8va(![I:staff -1][bb']/!8va)![I:staff +1][B,,,B,,]/!8va(![I:staff -1][d'd'']/!<)!!8va)![I:staff +1] [^G,,,G,,]/!8va(![I:staff -1][f'f'']/!8va)! !fermata!z || %150
!fff! .[B,D^G]2 | .[C^FA]2 [^G^g][Bb] .[A^ca]2!8va(! [^g^g'][bb'] | %152
 .[a^d'a']2!8va)! .[^G^g]2 !>![A^da]4 | [A,^C^FA]!<(![^G,^G][A,A][B,B]!<)! !^![=C_EFc]4 | %154
!8va(! [c'_e'c''][bb'][aa'][^g^g'] !>![a^d'a']2!8va)! z [Cc] | !>!BAGB !>!AGFA | !>!GFEG !>!FE^DF | %157
 (FE) .E.^D (FE) .E.D | (!>!E4 .[E^GBe]) z (3(e^f^g) | .[Aca]2 [^GB^g][Bdb] .[Aca]2 [GBg][Bdb] | %160
 .[Aca]2 .[^GB^g]2 !>![Aca]4 |!8va(! x/!<(! !^![ac'f'a'][^g^g'][aa'][bb']!<)! !^![c'e'c'']4 | %162
 x/!<(! !^![c'f'c''][bb'][aa']!<)![^g^g'] !^![ac'e'a']3 [c'c''] | %163
 [bb'][aa'][^g^g'][bb'] [aa'][^c^c'][^f^f'][aa'] | %164
 [^g^g'][^f^f'][ee'][gg'] [ff'][ee'][^d^d'][ff'] | %165
 ([^f^f'][ee']) .[ee'].[^d^d'] ([ff'][ee']) .[ee'].[dd'] | %166
 (!>![e^gbe']4 .[e'^g'b'e''])!8va)! z z3/2 ||!ff! [E^GBe]/ | .[E^GBe]2 z2 .[G^ce^g]2 z2 | %169
 !^![B^d^gb]6 (!>![Begb]>[ee']) | .[B^d^gb]2 (!>![Begb]>[ee']) .[Bdgb]2 (!>![Begb]>[ee']) | %171
!<(! (!^![B^d^gb]8!<)! | .[=de^gbe']) z z2 z4 | %173
!f!!8va(! (15:12:15(!>![a'c'']3/4[g'b']/4[f'a']/[e'g']/[d'f']/[c'e']/[bd']/[ac']/!8va)![gb]/[fa]/[eg]/[df]/[ce]/[Bd]/[Ac]/ .[GB]) z | %174
!8va(! (15:12:15(!>![f'a']3/4[e'g']/4[d'f']/[c'e']/[bd']/[ac']/[gb]/[fa]/!8va)![eg]/[df]/[ce]/[Bd]/[Ac]/[GB]/[FA]/ .[EG]) z | %175
 (15:12:15(!>![d'f']3/4[c'e']/4[bd']/[ac']/[gb]/[fa]/[eg]/[df]/[ce]/[Bd]/[Ac]/[GB]/[FA]/[EG]/[DF]/ .[CE]) z | %176
 (15:12:15(!>![bd']3/4[ac']/4[gb]/[fa]/[eg]/[df]/[ce]/[Bd]/[Ac]/[GB]/[FA]/[EG]/[DF]/[CE]/[B,D]/ .[A,C]) z | %177
 (15:12:15(!>![gb]3/4[fa]/4[eg]/[df]/[ce]/[Bd]/[Ac]/[GB]/[FA]/[EG]/[DF]/[CE]/[B,D]/[A,C]/[G,B,]/ .[F,A,]) z | %178
!f! (3z"^3"[I:staff +1] E,^G,[I:staff -1](3EE^G (3E EG(3ee^g | %179
 (3e e^g(3e'e'^g' (3e'"_cresc."!8va(! e'^g'(3e''g'^g'' | %180
 (3e'e''^g' (3^g''e'e'' (3g'g''e' (3e''g'g'' | %181
 (e'2 .[^g'b'e''])!8va)! z z!<(! [Ee][^F^f][^G^g]!<)! | %182
!ff! .[Aca]2 [^GB^g][Bdb] .[Aca]2 [GBg][Bdb] | .[Aca]2 .[^GB^g]2 !>![Aca]4 | %184
!8va(! [aa'][bb'] !>![c'c'']3 [bb'] !>![aa']2- | [aa'][gg'] !>![ff']2- [ff'][ee'][dd'][^c^c'] | %186
 .[dfd']2 [^ce^c'][ege'] .[dfd']2 [cec'][ege'] | .[dfd']2 .[^ce^c']2 !>![dfd']4 | %188
 [d'd''][e'e''] !>![f'f'']3 [e'e''] !>![d'd'']2- | [d'd''][c'c''] [bb']3 [aa'][^g^g'][aa'] | %190
!<(! .[^g^g'].[bb'] .[e'e'']2!8va)!!<)! !^![^G,B,E]4 | %191
!8va(!!<(! .[aa'].[c'c''] .[e'e'']2!8va)!!<)! !^![A,CE]4 | %192
 [B^g][db][Bg][db][K:bass] (!>!F,2 .E,) z |[K:treble] [ca][ec'][ca][ec'][K:bass] (!>!F,2 .E,) z | %194
[K:treble]!8va(! !^![f'^g'b'f''][e'e''][d'd''][c'c''][bb'][aa'][^gg'][ee']!8va)! | %195
 !^![f^gbf'][ee'][dd'][cc'][Bb][Aa][^Gg][Ee] | %196
"_più rinforz." [Ff][^D^d][Ee][=D=d] [^D^d][^C^c][=D=d][=C=c] | %197
 [^C^c][B,B][=C=c][_B,_B] [=B,=B][A,A][_B,_B][^G,^G] || %198
[K:A]!fff!!8va(! !^![ac'a']4!8va)! x2!8va(! [gbg'][bd'b'] | %199
 .[ac'a']2 [gbg'][bd'b'] .[ac'a']2 .[ac'a']2 | !^![c'^e'c'']4!8va)! x2!8va(! [^b^d'^b'][d'f'^d''] | %201
 .[c'^e'c'']2 [^b^d'^b'][d'f'^d''] .[c'e'c'']2 .[_d'=f'_d'']2 | %202
 !^![=f'a'=f'']4!8va)! x2!8va(! [e'=g'e''][g'_b'=g''] | %203
 .[=f'a'=f'']2 [e'=g'e''][g'_b'=g''] .[f'a'f'']2 .[=faf']2 | %204
!ff! [a^c'a'][^g^g'][aa'][bb'] !^![c'c'']3 [c'c''] | [c'c''][bb'][aa'][gg'] [aa']3 [f'f''] | %206
 [e'e''][d'd''][c'c''][e'e''] [d'd''][c'c''][bb'][d'd''] | %207
 [c'c''][bb'][aa'][c'c''] [bb'][aa'] [gg']2 | [ac'a'][gg'][aa'][bb'] !^![c'c'']3 [c'c''] | %209
 [c'c''][bb'][aa'][gg'] [aa']3 [f'f''] | [e'e''][d'd''][c'c''][e'e''] [d'd''][c'c''][bb'][d'd''] | %211
 [c'c''][bb'][aa'][c'c''] [bb'][aa'] [gg']2!8va)! | [Aa][^G^g]!<(![=F=f][Aa] [Gg][Ff][Ee][Gg] | %213
 [=F=f][Ee][Dd][Ff] [Dd]!<)![^C^c] .[_B,_B]2 | [Aa][^G^g][=F=f][Aa]!<(! [Gg][Ff][Ee][Gg] | %215
 [=F=f][Ee][Dd][Ff] [Dd]!<)![Cc] .[_B,_B]2 | [A,A][_B,_B][Cc][Dd][Ee]!<(![=F=f][Gg][Aa] | %217
[_B_b][cc'][dd'][ee']!8va(![=f=f'][gg'][aa'][b_b']!<)! | %218
 !>![c'c''][_b_b'][aa'][gg'][=f=f'][ee'][dd'][cc']!8va)! |[_B_b][Aa][Gg][=F=f][Ee][Dd][Cc][_B,B] | %220
 [A,A][_B,_B][Cc][Dd][Ee][=F=f]!<(![Gg][Aa] | %221
[_B_b][cc'][dd'][ee']!8va(![=f=f'][gg'][aa'][b_b']!<)! | .[c'c'']2 z2 .[d'=f'_b'd'']2 z2 | %223
 .[e'a'c''e'']2 z2 .[=f'_b'=f'']2!8va)! z2 |[K:bass]!pp!!<(! (!//-![E,A,C]4 E4) | %225
 .[E,A,C]2 z2!<)![K:treble] [Acea] .[Acea]2 z2 | %226
!8va(! [ac'e'a'] .[ac'e'a']2!8va)! z2 !fermata!z4 |] %227
V:4
 z3/2!p! (E,,,/^D,,/[I:staff -1]E,,/.E,/)[I:staff +1] (E,,,/D,,/[I:staff -1]E,,/.E,/)[I:staff +1] (E,,,/D,,/[I:staff -1]E,,/.E,/)[I:staff +1] (E,,,/ | %1
^D,,/[I:staff -1]E,,/.E,/)[I:staff +1] (E,,,/D,,/[I:staff -1]E,,/.E,/)[I:staff +1] (E,,,/D,,/[I:staff -1]E,,/.E,/)[I:staff +1] (E,,,/D,,/[I:staff -1]E,,/.E,/)[I:staff +1] (E,,,/ | %2
 ^D,,/[I:staff -1]E,,/.E,/)[I:staff +1] (F,,,/E,,/[I:staff -1]F,,/.F,/)[I:staff +1] (F,,,/E,,/[I:staff -1]F,,/.F,/)[I:staff +1] (F,,,/E,,/[I:staff -1]F,,/.F,/)[I:staff +1] (F,,,/ | %3
E,,/[I:staff -1]F,,/.F,/)[I:staff +1] (F,,,/E,,/!<(![I:staff -1]F,,/.F,/)[I:staff +1] (F,,,/E,,/[I:staff -1]F,,/.F,/)[I:staff +1] (F,,,/E,,/[I:staff -1]F,,/.F,/)[I:staff +1] (F,,,/!<)! | %4
 E,,/[I:staff -1]F,,/.F,/)[I:staff +1] (^G,,,/=G,,/[I:staff -1]^G,,/"^cresc.".^G,/)[I:staff +1] (^G,,,/=G,,/[I:staff -1]^G,,/.G,/)[I:staff +1] (^G,,,/=G,,/[I:staff -1]^G,,/.G,/)[I:staff +1] (^G,,,/ | %5
=G,,/[I:staff -1]^G,,/.^G,/)[I:staff +1] (A,,,/^G,,/[I:staff -1]A,,/.A,/)[I:staff +1] (A,,,/G,,/[I:staff -1]A,,/.A,/)[I:staff +1] (A,,,/G,,/[I:staff -1]A,,/.A,/)[I:staff +1] (A,,,/ | %6
^G,,/[I:staff -1]A,,/.A,/)[I:staff +1] (_B,,,/A,,/[I:staff -1]_B,,/._B,/)[I:staff +1] (B,,,/A,,/[I:staff -1]B,,/.B,/)[I:staff +1] (^C,,/^B,,/[I:staff -1]^C,/.^C/)[I:staff +1] (C,,/ | %7
 ^B,,/[I:staff -1]^C,/.^C/)[I:staff +1] (D,,/^C,/[I:staff -1]D,/.D/)[I:staff +1] (D,,/C,/[I:staff -1]D,/.D/)[I:staff +1] (^D,,/=D,/[I:staff -1]^D,/.^D/)[I:staff +1] (^D,,/ | %8
=D,/[I:staff -1]^D,/.^D/)[I:staff +1] (E,,/^D,/[I:staff -1]E,/.E/)[I:staff +1] (F,,/E,/[I:staff -1]F,/.F/)[I:staff +1] (^G,,/=G,/[I:staff -1]^G,/.^G/)[I:staff +1] (A,,/ | %9
^G,/[I:staff -1]A,/.A/)[I:staff +1] (_B,,/A,/[I:staff -1]_B,/._B/)[I:staff +1] (^C,/=C/[I:staff -1]^C/.^c/)[I:staff +1] (D,/^C/[I:staff -1]D/.d/)[I:staff +1] (^D,/ | %10
 =D/[I:staff -1]^D/.^d/)[I:staff +1] (E,/^D/[I:staff -1]E/.e/)[I:staff +1] x/"_strepitoso molto rinforz." [F,,F,]/[I:staff -1][Ff]/[I:staff +1][^G,,^G,]/[I:staff -1][^G^g]/[I:staff +1][A,,A,]/[I:staff -1][Aa]/[I:staff +1][_B,,_B,]/[I:staff -1][_B_b]/ | %11
[I:staff +1][^C,^C]/[I:staff -1][^c^c']/[I:staff +1][D,D]/[I:staff -1][dd']/[I:staff +1][^D,^D]/[I:staff -1][^d^d']/[I:staff +1][E,E]/[I:staff -1][ee']/[I:staff +1][F,F]/[I:staff -1][Ff]/[I:staff +1][K:treble][^G,^G]/[I:staff -1][G^g]/[I:staff +1][A,A]/[I:staff -1][Aa]/[I:staff +1][_B,_B]/[I:staff -1][B_b]/ | %12
[I:staff +1][^C^c]/[I:staff -1][c^c']/[I:staff +1][Dd]/[I:staff -1][dd']/[I:staff +1][^D^d]/[I:staff -1][d^d']/[I:staff +1][Ee]/[I:staff -1][ee']/[I:staff +1] [Ff]/[I:staff -1][ff']/[I:staff +1] z z2 | %13
 z4 z2[K:bass] .!^![F,,B,,D,F,]2 || .[^D,,A,,C,^D,]2 z2 .[^C,,^F,,A,,^C,]2 z2 | %15
 .[=C,,^F,,A,,=C,]2 z2 .[B,,,^D,,F,,B,,]2 z2 | .[A,,,^C,,^F,,A,,]2 z2 .[_A,,,=C,,_E,,_A,,]2 z2 | %17
 .[G,,,C,,_E,,G,,]2 z2 [^F,,,C,,^D,,^F,,]3 [C,,C,] | !>!B,A,G,B, !>!A,G,F,A, | %19
 !>!G,F,E,G, !>!F,E,^D,F, | F,E, .E,.^D, F,E, .E,.D, | !>!E,4 x4 | %22
 .[A,,A,]2 .[F,,F,]2 .[A,,A,]2 .[E,,E,]2 | .[A,,A,]2 .[D,,F,,D,]2 !>![A,,E,A,]4 | %24
 (2:1:2C,,/C,/[K:treble] !^![A,CFA]4[K:bass][K:treble] [CEGc]4 | %25
[K:bass] (2:1:2A,,,/A,,/ !^![F,A,DF]4 !^![A,CEA]4 | .[B,,,B,,]2 .[B,E^G]2 .B,,2 .[^C^FA]2 | %27
 .B,,2 .[B,E^G]2 .B,,2 .[A,^D^F]2 | .[E,^G,B,E]2 .[A,=C^F]2 .[E,G,B,E]2 .[A,CF]2 | %29
 (!^![E,^G,B,E]4 .[E,,^G,,B,,E,]) z |: z2 | z4 .^C2 z2 | !^!^G,15/2 [^C,^C]/ | %33
 !^!^G,7/2 [^C,^C]/ !^!G,7/2 [C,C]/ | .[^G,,^G,]2 .[^^F,,^^F,]2 .[^F,,^F,]2 .[=F,,=F,]2 | %35
 .[E,,E,] z z2 z4 |[K:treble] (6:4:6A,"_non legato"ABcBA (6:4:6G,GABAG | %37
 (6:4:6F,FGAGF (6:4:6E,EF^GFE |[K:bass] (6:4:6D,DEFED B,EB,E | %39
[K:bass] B,EB,E (B,.E/) z/ (B,.E/) z/ | %40
 [E,B,] z !arpeggio![E,^G,B,E] z !arpeggio![B,,E,G,B,] z !arpeggio![^G,,B,,E,G,] z | %41
 (!^![E,,^G,,B,,E,]4 .[E,^G,B,E]) z (3(E,^F,G,) | .[A,,A,]2 .[F,,F,]2 .[A,,A,]2 .[E,,E,]2 | %43
 .[A,,A,]2 .[D,,F,,D,]2 !>![A,,E,A,]4 | z2[K:treble] [A,A][B,B] !>![Cc]3 [B,B] | %45
 !>![A,A]3 [G,G] [F,F]3[K:bass] [E,E] | .[D,D]2 .[_B,,_B,]2 .[D,D]2 .[A,,A,]2 | %47
 .[D,D]2 .[G,,_B,,G,]2 !>![D,A,D]4 | z2[K:treble] [Dd][Ee] !>![Ff]3 [Ee] | %49
 !>![Dd]3 [Cc] !>![B,B]3 [A,A] | .[^G,^G].[B,B] .[Ee]2[K:bass] !^![E,,^G,,B,,E,]4 | %51
[K:treble] .[A,A].[Cc] .[Ee]2[K:bass] !^![E,,A,,C,E,]4 | (!>!F2 .E) z [^G,,B,,]D,[G,,B,,]D, | %53
 (!>!F2 .E) z A,,C,A,,C, |[K:treble] !^![F^GBf][Ee][Dd][Cc][B,B][A,A][^G,^G][E,E] | %55
[K:bass] !^![F,^G,B,F][E,E][D,D][C,C][B,,B,][A,,A,][^G,,G,][E,,E,] | %56
 [A,,A,][C,C][^G,,^G,][B,,B,] [A,,C,E,A,]2 .[E,,G,,B,,E,]2 | %57
!ped! .[A,,C,E,A,]2!ped-up! z2!ped! .[D,,F,,A,,D,]2!ped-up! z2 | %58
!ped! [A,,,C,,E,,A,,]4!ped-up! z2 :|[K:A] z2 | z2 (CE .A,,) z z2 | %61
 z2 (CE .A,,) z[K:treble] .[C^EB]2 | .[FA]2 .[CGB]2 .[FA]2 .[CGB]2 | %63
 .[FA]2[K:bass] (A,C .F,2)[K:treble] .[Ac=g]2 | .[df]2 .[Ae=g]2 .[df]2 .[Aeg]2 | .f2 (FA .D2) z2 | %66
 z2[K:bass] (DF .B,,) z z2 | z2 (DF .B,,) z z2 | (E,2 .[CEA]) z[K:treble] (E2 .[Beg]) z | %69
 .[Aea]2 .[eg]2 .[Aea] z[K:bass] CE | A,4 x z CE | !>!A,4 x z[K:treble] .[C^EB]2 | %72
 .[FA]2 .[CGB]2 .[FA]2 .[CGB]2 | .[FA]2 x2 x2 .[Ac=g]2 | .[df]2 .[Ae=g]2 .[df]2 .[Aeg]2 | %75
 .[df] z x2 z2[K:bass] DF | B,4 x z DF |"^(""^)" !>!B,4 x z z2 | %78
 [E,,E,] z [A,CE] z E, z[K:treble] [B,EG] z | [A,CEA] z [EG] z .[A,CEA] z ||[K:bass] .A,2 | %81
 .G,2 .=F,2 .E,2 .D,2 | !>!C,3 D, .E,2 z .A, | !>!E,3 A, !>!E,3 A, | %84
 .E,.C,.[A,,,A,,].C, .E,.C,.E,.A, | !>!E,4 .A, z !arpeggio!.[=F,,=C,A,]2 | %86
 !arpeggio!.[E,,=C,=G,]2 !arpeggio!.[=F,,C,A,]2 !arpeggio!.[=G,,E,=C]2 !arpeggio!.[G,,=F,B,]2 | %87
 !arpeggio!.[=C,=G,=C] z[K:treble] (E/=G/=c/d/ .e) z !arpeggio!.[=G,=FB] z | %88
 !arpeggio!.[=C=G=c] z (e/=g/=c'/d'/ .e') z !arpeggio!.[G=fb] z | %89
 .[=ce=c'] z .=G.[d=fb] .c.[e=gc'] .G.[dfb] | .=c.[e=g=c'] .=G.[d=fb] .c.[egc'] .G.[dfb] | %91
!ped! !arpeggio!.[=ce=g=c'] z!ped-up! (E/=F/^F/=G/^G/A/^A/B/c/^c/d/^d/ | %92
 e/=f/^f/=g/^g/a/^a/b/(5:4:5(=c'/^c'/d'/^d'/e'/)) z2 | z2 ce .A z z2 | z2 ce .A z .c.[^eb] | %95
 .f.a .c.[gb] .f.a .c.[gb] | .[fa] z x2 z2 .A.[e=g] | .d.[fa] .A.[e=g] .d.[fa] .A.[eg] | %98
 .[df] z x2 z4 | z2 df .B z z2 | z2 df .B z !tenuto![fd']2 | %101
 .[ec'].[db] !tenuto![ca]2 .[db].[ca] !tenuto![Bg]2 | .[Aca] z .[EGBe] z .[A,CEA] z || %103
[K:bass] .A,2 | .G,2 .=F,2 .E,2 .D,2 | !>!C,3 D, .E,2 z .A, | !>!E,3 A, !>!E,3 A, | %107
 .E,.C,.[A,,,A,,].C, .E,.C,.E,.A, | !>!E,4 .A, z !arpeggio!.[=F,,=C,A,]2 | %109
 !arpeggio!.[E,,=C,=G,]2 !arpeggio!.[=F,,C,A,]2 !arpeggio!.[=G,,E,=C]2 !arpeggio!.[G,,=F,B,]2 | %110
 !arpeggio!.[=C,=G,=C] z[K:treble] E/=G/=c/d/ .e z !arpeggio!.[=G,=FB] z | %111
 !arpeggio!.[=C=G=c] z (e/=g/=c'/d'/ .e') z !arpeggio!.[G=fb] z | %112
 .[=ce=c'] z .=G.[d=fb] .c.[e=gc'] .G.[dfb] | .=c.[e=g=c'] .=G.[d=fb] .c.[egc'] .G.[dfb] | %114
!ped! !arpeggio!.[=ce=g=c'] z!ped-up! (E/=F/^F/=G/^G/A/^A/B/c/^c/d/^d/ | %115
 e/=f/^f/=g/^g/a/^a/b/(5:4:5(=c'/^c'/d'/^d'/e'/)) z2 | z2 ce .A z z2 | z2 ce .A z .c.[^eb] | %118
 .f.a .c.[gb] .f.a .c.[gb] | .[fa] z x2 z2 .A.[c=g] | .d.[fa] .A.[e=g] .d.[fa] .A.[eg] | %121
 .[df] z x2 z4 | z2 df!ped! .B z!ped-up! z2 | z2 df!ped! .B z!ped-up! z2 | %124
 z2 d=f!ped! ._B z!ped-up! z2 | z2 d=f!ped! ._B z!ped-up! !stemless!_b/ !stemless!b/ x | %126
 !stemless!a/ !stemless!a/ x !stemless!_g/ !stemless!g/ x !stemless!=f/ !stemless!f/ x !stemless!_e/ !stemless!e/ x | %127
 !stemless!d/ !stemless!d/ x x x !stemless!=f/ !stemless!f/ x x _B | [=F=f]3 _B [Ff]3 B | %129
 ([=F=f]_B) ([Ff]B) ([Ff]B) ([Ff]B) | %130
 [=F=f] z[K:bass]"^Cadenza ad lib.""_Kürzer zum Zeichen \nPour abreger passer au signe \n\nShorter, to the sign \n\nHo rövidítünk, folytassuk \n\n jelnél\n" !fermata!z2 x4 | %131
 x8 |!>(! x8 | x8!>)! | D,/C,/=C,/=B,,/_B,,/=A,,/^G,,/A,,/!<(! B,,/=B,,/C,/^C,/D,^D,E,!<)! | %135
[K:C]!8vb(! (3^G,,,D,,F,, (3G,,,^C,,E,, (3G,,,D,,F,, (3G,,,C,,E,, | %136
 (3^G,,,D,,F,, (3G,,,^C,,E,, (3G,,,D,,F,,(3D,,B,,,G,,, | %137
 (34:16:34F,,,/E,,,/F,,,/^F,,,/G,,,/^G,,,/!<(!A,,,/^A,,,/B,,,/C,,/^C,,/D,,/!<)!C,,/=C,,/B,,,/A,,,/=A,,,/ G,,,/!<(!A,,,/^A,,,/B,,,/C,,/^C,,/D,,/^D,,/E,,/!<)!=F,,/E,,/D,,/=D,,/C,,/=C,,/B,,,/_B,,,/ | %138
 (3A,,,^D,,^F,, (3A,,,=D,,^E,, (3A,,,^D,,F,, (3A,,,=D,,^E,, | %139
 (3A,,,^D,,^F,, (3A,,,=D,,^E,, (3A,,,^D,,F,,(3D,,C,,A,,, | %140
 (17:8:17^F,,,/^E,,,/F,,,/G,,,/!<(!^G,,,/A,,,/^A,,,/B,,,/C,,/^C,,/D,,/^D,,/!<)!=D,,/C,,/=C,,/B,,,/A,,,/(17:8:17=A,,,/^A,,,/B,,,/!<(!C,,/^C,,/D,,/^D,,/E,,/^E,,/^F,,/E,,/!<)!=E,,/D,,/=D,,/C,,/=C,,/B,,,/ | %141
 (3A,,,E,,G,, (3A,,,^D,,^F,, (3A,,,E,,G,,(3E,,^C,,A,,, | %142
 (3B,,,=F,,^G,, (3B,,,E,,=G,, (3B,,,F,,^G,,(3F,,D,,B,,, | %143
!ped! (16:8:16^G,,,/=G,,,/^G,,,/A,,,/^A,,,/B,,,/C,,/^C,,/D,,/^D,,/E,,/F,,/E,,/D,,/=D,,/C,,/(16:8:16=C,,/B,,,/C,,/^C,,/D,,/^D,,/E,,/F,,/^F,,/G,,/^G,,/=G,,/F,,/=F,,/E,,/D,,/!8vb)!!ped-up! | %144
!ped! x8!ped-up! |!ped! x8!ped-up! |!ped! x8 | x8!ped-up! |!ped! x8 | x7!ped-up! !fermata!z || %150
 .[F,,F,]2 | [^D,,^D,][^F,,^F,][A,,A,] z [^C,,^C,][F,,F,][A,,A,] z | %152
 [=C,,=C,][^F,,^F,][A,,A,] z [B,,,B,,][^D,,^D,][F,,F,] z | %153
 [A,,,A,,][^C,,^C,][^F,,^F,] z [_A,,,_A,,][=C,,=C,][_E,,_E,] z | %154
 [G,,,G,,][C,,C,][_E,,_E,] z [^F,,,^F,,][A,,,A,,] !>![C,,C,]2 | !>!B,A,G,B, !>!A,G,F,A, | %156
 !>!G,F,E,G, !>!F,E,^D,F, | F,E, .E,.^D, F,E, .E,.D, | !>!E,4 x4 | %159
 .[A,,A,]2 .[F,,F,]2 .[A,,A,]2 .[E,,E,]2 | .[A,,A,]2 .[D,,F,,D,]2 [A,,E,A,]4 | %161
 (2:1:2C,,/C,/[K:treble] !^![A,CFA]4[K:bass][K:treble] [CEGc]4 | %162
[K:bass] (2:1:2A,,,/A,,/ !^![F,A,DF]4 !^![A,CEA]4 | .[B,,,B,,]2 .[B,E^G]2 .B,,2 .[^C^FA]2 | %164
 .B,,2 .[B,E^G]2 .B,,2 .[A,^D^F]2 | .[E,^G,B,E]2 .[A,=C^F]2 .[E,G,B,E]2 .[A,CF]2 | %166
 ([E,^G,B,E]4 .[E,,^G,,B,,E,]) z z3/2 || [E,^G,B,]/ | .[E,^G,B,]2 z2 .[^C,E,G,^C]2 z2 | %169
 !^![^G,,^D,^G,]6 .[^C,,^C,]2 | .[^G,,^G,]2 .[^C,^C]2 .[G,^G]2 .[C,C]2 | %171
 .[^G,,^G,]2 .[^^F,,^^F,]2 .[^F,,^F,]2 .[=F,,=F,]2 | %172
!ped! .[E,,^G,,B,,E,] z z2!ped-up! z2[K:treble] [Ee]2 | ([Ac]e) .[Ac] z ([B,D]G) .[B,D] z | %174
 ([FA]c) .[FA] z ([G,B,]E) .[G,B,] z | ([DF]A) .[DF] z[K:bass] ([E,G,]C) .[E,G,] z | %176
 (([B,D]F)) .[B,D] z (([C,E,]A,)) .[C,E,] z | (([G,B,]D)) .[G,B,] z (([A,,C,]F,)) .[A,,C,] z | %178
!ped! [E,,^G,,B,,E,]2!ped-up! z [D,E,B,] .[^C,E,^A,]2 .[=C,E,=A,]2 | %179
!ped! .[B,,E,^G,]2!ped-up! z[K:treble] [DEB] .[^CE^A]2 .[=CE=A]2 | %180
!ped! .[B,E^G]2!ped-up! .[EBde]2 .[E^A^ce]2 .[E=A=ce]2 | %181
 ([E^GBe]2 .[Be^gb]) z z[K:bass] [E,,E,][^F,,^F,][^G,,^G,] | %182
 .[A,,A,]2 .[F,,F,]2 .[A,,A,]2 .[E,,E,]2 | .[A,,A,]2 .[D,,F,,D,]2 !>![A,,E,A,]4 | %184
 z2[K:treble] [A,A][B,B] !>![Cc]3 [B,B] | !>![A,A]3 [G,G] !>![F,F]3[K:bass] [E,E] | %186
 .[D,D]2 .[_B,,_B,]2 .[D,D]2 .[A,,A,]2 | .[D,D]2 .[G,,_B,,G,]2 !>![D,A,D]4 | %188
 z2[K:treble] [Dd][Ee] !>![Ff]3 [Ee] | !>![Dd]3 [Cc] !>![B,B]3 [A,A] | %190
 .[^G,^G].[B,B] .[Ee]2[K:bass] !^![E,,^G,,B,,E,]4 | %191
[K:treble] .[A,A].[Cc] .[Ee]2[K:bass] !^![E,,A,,C,E,]4 | %192
!ped! (!>!F2 .E)!ped-up! z [^G,,B,,]D,[G,,B,,]D, |!ped! (!>!F2 .E)!ped-up! z A,,C,A,,C, | %194
[K:treble] !^![F^GBf][Ee][Dd][Cc][B,B][A,A][^G,G][K:bass][E,E] | %195
 !^![F,^G,B,F][E,E][D,D][C,C][B,,B,][A,,A,][^G,,G,][E,,E,] | %196
 [F,,F,][^D,,^D,][E,,E,][=D,,=D,] [^D,,^D,][^C,,^C,][=D,,=D,][=C,,=C,] | %197
 [^C,,^C,][B,,,B,,][=C,,=C,][_B,,,_B,,] [=B,,,=B,,][A,,,A,,][_B,,,_B,,][^G,,,^G,,] || %198
[K:A]!ped! x2 [C,E,A,][C,E,A,] .[C,E,A,]2!ped-up! x2 | %199
 .[A,,C,E,A,]2 .[D,,=F,,D,]2 .[A,,,C,,E,,A,,]2 .[^F,,^F,]2 | %200
!ped! x2 [^E,G,C][E,G,C] .[E,G,C]2!ped-up! x2 | %201
 .[C,^E,G,C]2 .[F,,A,,F,]2 .[C,,^E,,G,,C,]2 .[_B,,_B,]2 | %202
!ped! x2 [A,=C=F][A,CF] .[A,CF]2!ped-up![K:treble] x2 | %203
[K:bass] .[=F,A,=C=F]2 .[_B,,_D,_B,]2 .[=F,,A,,=C,F,]2 .[D,,=D,]2 | %204
 [A,,,A,,]2 [E,A,^CE]2 [A,,,A,,]2 [^E,A,C^E]2 | [A,,,A,,]2 [F,DF]2 [A,,,A,,]2 [F,=C^D]2 | %206
 [A,,,A,,]2 [E,G,E]2 [A,,,A,,]2 [E,G,B,E]2 | [A,,,A,,]2 [E,A,CE]2 [A,,,A,,]2 [E,B,E]2 | %208
 [A,,,A,,]2 [E,A,CE]2 [A,,,A,,]2 [^E,A,C^E]2 | [A,,,A,,]2 [F,DF]2 [A,,,A,,]2 [F,=C^D]2 | %210
 [A,,,A,,]2 [E,G,E]2 [A,,,A,,]2 [E,G,B,E]2 | [A,,,A,,]2 [E,A,CE]2 [A,,,A,,]2 [E,B,E]2 | %212
 [A,,A,][^G,,^G,][=F,,=F,][A,,A,] [G,,G,][F,,F,][E,,E,][G,,G,] | %213
 [=F,,=F,][E,,E,][D,,D,][F,,F,] [D,,D,][^C,,^C,] .[_B,,,_B,,]2 | %214
 [A,,A,][^G,,^G,][=F,,=F,][A,,A,] [G,,G,][F,,F,][E,,E,][G,,G,] | %215
 [=F,,=F,][E,,E,][D,,D,][F,,F,] [D,,D,][^C,,^C,] .[_B,,,_B,,]2 | %216
 [A,,,A,,][_B,,,_B,,][C,,C,][D,,D,][E,,E,][=F,,=F,][G,,G,][A,,A,] | %217
[_B,,_B,][C,C][D,D][E,E][=F,=F][K:treble][G,G][A,A][_B,_B] | %218
 !>![Cc][_B,_B][A,A][G,G][K:bass][=F,=F][E,E][D,D][C,C] | %219
[_B,,_B,][A,,A,][G,,G,][=F,,=F,][E,,E,][D,,D,][C,,C,][_B,,,B,,] | %220
 [A,,,A,,][_B,,,_B,,][C,,C,][D,,D,][E,,E,][=F,,=F,][G,,G,][A,,A,] | %221
[_B,,_B,][C,C][D,D][E,E][=F,=F][K:treble][G,G][A,A][_B,_B] | %222
!ped! .[Cc]2 z2!ped-up![K:bass]!ped! .[D,=F,_B,D]2 z2!ped-up! | %223
!ped! .[A,,C,E,A,]2 z2!ped-up!!ped! .[D,,=F,,_B,,D,]2 z2!ped-up! | %224
!ped! (!//-![A,,,C,,E,,]4 A,,4)!ped-up! | %225
!ped! !arpeggio!.[A,,,C,,E,,A,,]2 z2!ped-up!!ped! [A,,C,E,A,] .[A,,C,E,A,]2 z2!ped-up! | %226
!ped! [A,,,C,,E,,A,,] .[A,,,C,,E,,A,,]2 z2!ped-up! !fermata!z4 |] %227
V:5
 z8 | z8 | z8 | z8 | z8 | z8 | z8 | z8 | z8 | z8 | z8 | z8 | z8 | z8 || z8 | z8 | z8 | z8 | z8 | %19
 z8 | z8 | z8 | z8 | z8 | z8 z/ | z8 z/ | z8 | z8 | z8 | z4 z2 |: z2 | z8 | z8 | z8 | z8 | z8 | %36
 z8 | z8 | z8 | z8 | z8 | z8 | z8 | z8 | z8 | z8 | z8 | z8 | z8 | z8 | z8 | z8 | z8 | z8 | z8 | %55
 z8 | z8 | z8 | z4 z2 :|[K:A] z2 | z8 | z8 | z8 | z8 | z8 | z8 | z8 | z8 | z8 | z8 | z8 | z8 | z8 | %73
 z8 | z8 | z8 | z8 | z8 | z8 | z4 z2 || z2 | z8 | z8 | z8 | z8 | z8 | z8 | z8 | z8 | z8 | z8 | z8 | %92
 z8 | z8 | z8 | z8 | z8 | z8 | z8 | z8 | z8 | z8 | z4 z2 || z2 | z8 | z8 | z8 | z8 | z8 | z8 | z8 | %111
 z8 | z8 | z8 | z8 | z8 | z8 | z8 | z8 | z8 | z8 | z8 | z8 | z8 | z8 | z8 | z8 | z8 | z8 | z8 | %130
 z8 | z8 | z8 | z8 | z8 z |[K:C] z8 | z8 | z8 | z8 | z8 | z8 | z8 | z8 | z8 | z8 | z8 | z8 | z8 | %148
 z8 | z8 || z2 | z8 | z8 | z8 | z8 | z8 | z8 | z8 | z8 | z8 | z8 | z8 z/ | z8 z/ | z8 | z8 | z8 | %166
 z4 z2 z z/ || z/ | z8 | z8 | z8 | z8 | z8 |!f!!8va(! (3ac''c' (3e''a'c'' (3gb'b (3d''gb' | %174
 (3fa'a (3c''fa' (3eg'g (3b'eg' | (3df'f (3a'df' (3ce'e (3g'ce'!8va)! | %176
 (3_Bd'd (3f'Bd' (3Ac'c (3e'Ac' | (3DfF (3aDf (3CeE (3gCe | z8 | z8 | z8 | z8 | z8 | z8 | z8 | z8 | %186
 z8 | z8 | z8 | z8 | z8 | z8 | z8 | z8 | z8 | z8 | z8 | z8 ||[K:A] z8 | z8 | z8 | z8 | z8 | z8 | %204
 z8 | z8 | z8 | z8 | z8 | z8 | z8 | z8 | z8 | z8 | z8 | z8 | z8 | z8 | z8 | z8 | z8 | z8 | z8 | %223
 z8 | z8 | z8 z | z8 z |] %227
V:6
 z8 | z8 | z8 | z8 | z8 | z8 | z8 | z8 | z8 | z8 | z8 | z8 | z8 | z8 || z8 | z8 | z8 | z8 | z8 | %19
 z8 | z8 | z8 | z8 | z8 | z8 z/ | z8 z/ | z8 | z8 | z8 | z4 z2 |: z2 | z8 | z8 | z8 | z8 | z8 | %36
 z8 | z8 | z8 | z8 | z8 | z8 | z8 | z8 | z8 | z8 | z8 | z8 | z8 | z8 | z8 | z8 | z8 | z8 | z8 | %55
 z8 | z8 | z8 | z4 z2 :|[K:A] z2 | z8 | z8 | z8 | z8 | z8 | z8 | z8 | z8 | z8 | z8 | z8 | z8 | z8 | %73
 z8 | z8 | z8 | z8 | z8 | z8 | z4 z2 || z2 | z8 | z8 | z8 | z8 | z8 | z8 | z8 | z8 | z8 | z8 | z8 | %92
 z8 | z8 | z8 | z8 | z8 | z8 | z8 | z8 | z8 | z8 | z4 z2 || z2 | z8 | z8 | z8 | z8 | z8 | z8 | z8 | %111
 z8 | z8 | z8 | z8 | z8 | z8 | z8 | z8 | z8 | z8 | z8 | z8 | z8 | z8 | z8 | z8 | z8 | z8 | z8 | %130
 z8 | z8 | z8 | z8 | z8 z |[K:C] z8 | z8 | z8 | z8 | z8 | z8 | z8 | z8 | z8 | z8 | z8 | z8 | z8 | %148
 z8 | z8 || z2 | z8 | z8 | z8 | z8 | z8 | z8 | z8 | z8 | z8 | z8 | z8 z/ | z8 z/ | z8 | z8 | z8 | %166
 z4 z2 z z/ || z/ | z8 | z8 | z8 | z8 | z8 |[K:treble]"^Ossia" ([Ac]e) .[Ac] z ([B,D]G) .[B,D] z | %174
 ([FA]c) .[FA] z ([G,B,]E) .[G,B,] z | ([DF]A) .[DF] z[K:bass] ([E,G,]C) .[E,G,] z | %176
 ([_B,D]F) .[B,D] z ([C,E,]A,) .[C,E,] z | ((([G,=B,]D))) .[G,B,] z ((([B,,^D,]A,))) .[B,,D,] z | %178
 z8 | z8 | z8 | z8 | z8 | z8 | z8 | z8 | z8 | z8 | z8 | z8 | z8 | z8 | z8 | z8 | z8 | z8 | z8 | %197
 z8 ||[K:A] z8 | z8 | z8 | z8 | z8 | z8 | z8 | z8 | z8 | z8 | z8 | z8 | z8 | z8 | z8 | z8 | z8 | %215
 z8 | z8 | z8 | z8 | z8 | z8 | z8 | z8 | z8 | z8 | z8 z | z8 z |] %227
V:7
 x8 | x8 | x8 | x8 | x8 | x8 | x8 | x8 | x8 | x8 | x8 | x4 x[K:treble] x/ x/ x/ x/ x/ x/ | %12
 x/ x/ x/ x/ x/ x/ x/ x/ x/ x/ x x2 | x6[K:bass] x2 || x8 | x8 | x8 | x8 | %18
 !>![B,,,B,,][A,,,A,,][G,,,G,,][B,,,B,,] !>![A,,,A,,][G,,,G,,][F,,,F,,][A,,,A,,] | %19
 !>![G,,,G,,][F,,,F,,][E,,,E,,][G,,,G,,] !>![F,,,F,,][E,,,E,,][^D,,,^D,,][F,,,F,,] | %20
 ([F,,,F,,][E,,,E,,]) .[E,,,E,,].[^D,,,^D,,] ([F,,,F,,][E,,,E,,]) .[E,,,E,,].[D,,,D,,] | %21
 (!>![E,,,E,,]4 .[E,,^G,,B,,E,]) z (3(E,^F,^G,) | x8 | x8 | %24
 x/[K:treble] x7/2[K:bass] (2:1:2C,,/C,/[K:treble] x4 |[K:bass] x/ x7/2 (2:1:2A,,,/A,,/ x4 | x8 | %27
 x8 | x8 | x6 |: x2 | x8 | x8 | x8 | x8 | x8 |[K:treble] A, x x2 G, x x2 | F, x x2 E, x x2 | %38
[K:bass] D, x x2 E,2 x2 |[K:bass] E,2 E,2 E,2 E,2 | x8 | x8 | x8 | x8 | x2[K:treble] x6 | %45
 x7[K:bass] x | x8 | x8 | x2[K:treble] x6 | x8 | x4[K:bass] x4 |[K:treble] x4[K:bass] x4 | x8 | %53
 x8 |[K:treble] x8 |[K:bass] x8 | x8 | x8 | x6 :|[K:A] x2 | x2 E,2 x4 | x2 E,2 x4[K:treble] | x8 | %63
 x2[K:bass] x4[K:treble] x2 | x8 | d2 x2 x4 | x2[K:bass] F,2 x4 | x2 F,2 x4 | x4[K:treble] x4 | %69
 x6[K:bass] x2 | z2 [A,,E,] z [A,,E,] x x2 | z2 [A,,E,] z [A,,E,] x[K:treble] x2 | x8 | x8 | x8 | %75
 x6[K:bass] x2 | z2 [B,,F,] z [B,,F,] x x2 | z2 [B,,F,] z [B,,F,] x x2 | x6[K:treble] x2 | x6 || %80
[K:bass] .[A,,,A,,]2 | .[G,,,G,,]2 .[=F,,,=F,,]2 .[E,,,E,,]2 .[D,,,D,,]2 | %82
 (!>![C,,,C,,]3 [D,,,D,,]) .[E,,,E,,]2 z .[A,,,A,,] | %83
 (!>![E,,,E,,]3 [A,,,A,,]) (!>![E,,,E,,]3 [A,,,A,,]) | %84
 .[E,,,E,,].C,,.A,,,.C,, .E,,.C,,.E,,.[A,,,A,,] | (!>![E,,,E,,]4 .[A,,,A,,]) x x2 | x8 | %87
 x2[K:treble] x6 | x8 | x8 | x8 | x8 | x8 | x2 x2 .[A,E] x x2 | x2 x2 [A,E] x x2 | x8 | x8 | x8 | %98
 x8 | x2 x2 [B,F] x x2 | x2 x2 [B,F] x x2 | x8 | x6 ||[K:bass] .[A,,,A,,]2 | %104
 .[G,,,G,,]2 .[=F,,,=F,,]2 .[E,,,E,,]2 .[D,,,D,,]2 | %105
 (!>![C,,,C,,]3 [D,,,D,,]) .[E,,,E,,]2 z .[A,,,A,,] | %106
 (!>![E,,,E,,]3 [A,,,A,,]) (!>![E,,,E,,]3 [A,,,A,,]) | %107
 .[E,,,E,,].C,,.A,,,.C,, .E,,.C,,.E,,.[A,,,A,,] | (!>![E,,,E,,]4 .[A,,,A,,]) x x2 | x8 | %110
 x2[K:treble] x6 | x8 | x8 | x8 | x8 | x8 | x2 x2 .[A,E] x x2 | x2 x2 .[A,E] x x2 | x8 | x8 | x8 | %121
 x8 | x2 x2 .[DF] x x2 | x2 x2 .[DF] x x2 | x2 x2 .[D=F] x x2 | x2 x2 .[D=F] x x2 | x2 x2 x2 x2 | %127
 x2 x2 x2 x2 | x8 | x8 | x2[K:bass] x6 | x8 | x8 | x8 | %134
 _B,,/A,,/_A,,/=G,,/_G,,/=F,,/E,,/_E,,/ D,,C,,/=C,,/=B,,,_B,,,A,,, |[K:C]!8vb(! x8 | x8 | x8 | x8 | %139
 x8 | x8 | x8 | x8 | x8!8vb)! | x8 | x8 | x8 | x8 | x8 | x8 || x2 | x8 | x8 | x8 | x8 | %155
 !>![B,,,B,,][A,,,A,,][G,,,G,,][B,,,B,,] !>![A,,,A,,][G,,,G,,][F,,,F,,][A,,,A,,] | %156
 !>![G,,,G,,][F,,,F,,][E,,,E,,][G,,,G,,] !>![F,,,F,,][E,,,E,,][^D,,,^D,,][F,,,F,,] | %157
 ([F,,,F,,][E,,,E,,]) .[E,,,E,,].[^D,,,^D,,] ([F,,,F,,][E,,,E,,]) .[E,,,E,,].[D,,,D,,] | %158
 (!>![E,,,E,,]4 .[E,,^G,,B,,E,]) z z2 | x8 | x8 | %161
 x/[K:treble] x7/2[K:bass] (2:1:2C,,/C,/[K:treble] x4 |[K:bass] x/ x7/2 (2:1:2A,,,/A,,/ x4 | x8 | %164
 x8 | x8 | x15/2 || x/ | x8 | x8 | x8 | x8 | x6[K:treble] x2 | x385/48 | x385/48 | %175
 x193/48[K:bass] x4 | x385/48 | x385/48 | x8 | x3[K:treble] x5 | x8 | x5[K:bass] x3 | x8 | x8 | %184
 x2[K:treble] x6 | x7[K:bass] x | x8 | x8 | x2[K:treble] x6 | x8 | x4[K:bass] x4 | %191
[K:treble] x4[K:bass] x4 | x8 | x8 |[K:treble] x7[K:bass] x | x8 | x8 | x8 || %198
[K:A] !^![A,,,E,,A,,]4 x2 .[D,=F,D]2 | x8 | !^![C,,G,,C,]4 x2 .[F,A,F]2 | x8 | %202
 !^![=F,,A,,=C,=F,]4 x2[K:treble] .[_B,_D_B]2 |[K:bass] x8 | x8 | x8 | x8 | x8 | x8 | x8 | x8 | %211
 x8 | x8 | x8 | x8 | x8 | x8 | x5[K:treble] x3 | x4[K:bass] x4 | x8 | x8 | x5[K:treble] x3 | %222
 x4[K:bass] x4 | x8 | x8 | x9 | x9 |] %227
V:8
 x8 | x8 | x8 | x8 | x8 | x8 | x8 | x8 | x8 | x8 | x8 | x8 | x8 | x8 || x8 | x8 | x8 | x8 | x8 | %19
 x8 | x8 | x8 | x8 | x8 | x17/2 | x17/2 | x8 | x8 | x8 | x6 |: x2 | x8 | x8 | x8 | x8 | x8 | %36
 !>!e2 e2 !>!^d2 d2 | !>!c2 c2 !>!B2 B2 | !>!A2 A2 ^G4 | !>!^G4 G2 G2 | ^G2 G2 E2 EG | x8 | x8 | %43
 x8 | x8 | x8 | x8 | x8 | x8 | x8 | x8 | x8 | x8 | x8 | x8 | x8 | x8 | x8 | x6 :|[K:A] x2 | x8 | %61
 x8 | x8 | x8 | x8 | x8 | x8 | x8 | x8 | x8 | x8 | x8 | x8 | x8 | x8 | x8 | x8 | x8 | x8 | x6 || %80
 x2 | x8 | x8 | x8 | x8 | x8 | x8 | x8 | x8 | x8 | x8 | x8 | x8 | x8 | x8 | x8 | x8 | x8 | x8 | %99
 x8 | x8 | x8 | x6 || x2 | x8 | x8 | x8 | x8 | x8 | x8 | x8 | x8 | x8 | x8 | x8 | x8 | x8 | x8 | %118
 x8 | x8 | x8 | x8 | x8 | x8 | x8 | x8 | x8 | x8 | x8 | x8 | x8 | x8 | x8 | x8 | x9 |[K:C] x8 | %136
 x8 | x8 | x8 | x8 | x8 | x8 | x8 | x8 | x8 | x8 | x8 | x8 | x8 | x8 || x2 | x8 | x8 | x8 | x8 | %155
 x8 | x8 | x8 | x8 | x8 | x8 | x17/2 | x17/2 | x8 | x8 | x8 | x15/2 || x/ | x8 | x8 | x8 | x8 | %172
 x8 | x385/48 | x385/48 | x385/48 | x385/48 | x385/48 | x8 | x8 | x8 | x8 | x8 | x8 | x8 | x8 | %186
 x8 | x8 | x8 | x8 | x8 | x8 | x8 | x8 | x8 | x8 | x8 | x8 ||[K:A] x8 | x8 | x8 | x8 | x8 | x8 | %204
 x8 | x8 | x8 | x8 | x8 | x8 | x8 | x8 | x8 | x8 | x8 | x8 | x8 | x8 | x8 | x8 | x8 | x8 | x8 | %223
 x8 | x8 | x9 | x9 |] %227
V:9
 x8 | x8 | x8 | x8 | x8 | x8 | x8 | x8 | x8 | x8 | x8 | x8 | x8 | x8 || x8 | x8 | x8 | x8 | x8 | %19
 x8 | x8 | x8 | x8 | x8 | x17/2 | x17/2 | x8 | x8 | x8 | x6 |: x2 | x8 | x8 | x8 | x8 | x8 | %36
[K:treble] E2 CE ^D2 B,D | C2 A,C B,2 ^G,B, |[K:bass] A,2 F,A, ([B,E]E, B,) z | x8 | x8 | x8 | x8 | %43
 x8 | x8 | x8 | x8 | x8 | x8 | x8 | x8 | x8 | x8 | x8 | x8 | x8 | x8 | x8 | x6 :|[K:A] x2 | x8 | %61
 x8 | x8 | x8 | x8 | x8 | x8 | x8 | x8 | x8 | x8 | x8 | x8 | x8 | x8 | x8 | x8 | x8 | x8 | x6 || %80
 x2 | x8 | x8 | x8 | x8 | x8 | x8 | x8 | x8 | x8 | x8 | x8 | x8 | x8 | x8 | x8 | x8 | x8 | x8 | %99
 x8 | x8 | x8 | x6 || x2 | x8 | x8 | x8 | x8 | x8 | x8 | x8 | x8 | x8 | x8 | x8 | x8 | x8 | x8 | %118
 x8 | x8 | x8 | x8 | x8 | x8 | x8 | x8 | x8 | x8 | x8 | x8 | x8 | x8 | x8 | x8 | x9 |[K:C] x8 | %136
 x8 | x8 | x8 | x8 | x8 | x8 | x8 | x8 | x8 | x8 | x8 | x8 | x8 | x8 || x2 | x8 | x8 | x8 | x8 | %155
 x8 | x8 | x8 | x8 | x8 | x8 | x17/2 | x17/2 | x8 | x8 | x8 | x15/2 || x/ | x8 | x8 | x8 | x8 | %172
 x8 |[K:treble]!8va(! x17/6!8va)! x83/16 |!8va(! x17/6!8va)! x83/16 | x385/48 | x385/48 | x385/48 | %178
 x8 | x14/3!8va(! x10/3 | x8 | x8!8va)! | x8 | x8 | x8 | x8 | x8 | x8 | x8 | x8 | x8 | x8 | x8 | %193
 x8 | x8 | x8 | x8 | x8 ||[K:A] x8 | x8 | x8 | x8 | x8 | x8 | x8 | x8 | x8 | x8 | x8 | x8 | x8 | %211
 x8 | x8 | x8 | x8 | x8 | x8 | x8 | x8 | x8 | x8 | x8 | x8 | x8 | x8 | x9 | x9 |] %227
V:10
 x5/2[K:bass] x11/2 | x8 | x8 | x8 | x8 | x8 | x8 | x8 | x8 |[K:treble] x8 | x8 | x9/2!8va(! x7/2 | %12
 x5!8va)! x3 | x8 || x8 | x8 | x8 | x8 | x8 | x8 | x8 | x8 | x8 | x8 | x/!8va(! x8 | x17/2 | x8 | %27
 x8 | x8 | x5!8va)! x |: x2 | x8 | x8 | x8 | x8 | x8 | x2 ef e2 de | d2 cd c2 Bc | B2 AB ^GBGB | %39
 ^GBGB GB/ x/ GB/ x/ | ^G2 G2 E2 EG | x8 | x8 | x8 |!8va(! x8 | x8 | x8 | x8 | x8 | x8 | %50
 x4!8va)! x4 |!8va(! x4!8va)! x4 | x4[K:bass] x4 |[K:treble] x4[K:bass] x4 | %54
[K:treble]!8va(! x8!8va)! | x8 | Ac ^GB [Aca][cec'] [GB^g][Bdb] | x4!8va(! x4 | x4!8va)! x2 :| %59
[K:A] x2 | x8 | x4 z2 c2 | c2 c2 c2 c2 | c2 x2 x2 a2 | a2 a2 a2 a2 | a2 x2 x2 x2 | x8 | %67
 x6!8va(! x2 | x8 | x5!8va)! x3 | x2 E x e x x2 | x2!8va(! e x e' x c'2 | c'2 c'2 c'2 c'2 | %73
 c' x!8va)! x2 x2!8va(! (3(f'e'a) | (3(e'd'a) (3(d'c'a) (3(e'd'a) (3(d'c'a) | %75
 (3(e'd'a!8va)![I:staff +1]f/d/A/F/)[I:staff -1] x4 | x2 F x f x x2 | x2!8va(! f x f' x x2 | x8 | %79
 x6!8va)! || x2 | x8 | x8 | x8 | x8 | x8 | [=G=c]2 [=FA]2 [EG]2 [DF]2 | E x x2 x2 =f z | %88
!8va(! e x x2 x2 =f' z | x8 | x8 | x!8va)! x7 | x2!8va(! x6 | x8 | x8 | x8 | x2!8va)! x4!8va(! x2 | %97
 x8 | x2!8va)! x4!8va(! x2 | x8 | x8 | x8 | x5!8va)! x || x2 | x8 | x8 | x8 | x8 | x8 | %109
 [=G=c]2 [=FA]2 [EG]2 [DF]2 | E x x2 x2 =f z |!8va(! e x x2 x2 =f' z | x8 | x8 | x!8va)! x7 | %115
 x2!8va(! x6 | x8 | x4 x2 a'g' | g'f' f'^e' g'f' f'e' | x2!8va)! x4!8va(! x2 | x8 | %121
 x2!8va)! x4!8va(! x2 | x8 | x8 | x8 | x8 | x8 | x8 | x8 | x8 | %130
 x2 _b/=b/=c'/_d'/=d'/_e'/=e'/=f'/^f'/=g'/_a'/=a'/ | %131
!>!_b'/a'/_a'/=g'/_g'/=f'/e'/_e'/d'/_d'/=c'/b/_b/a/_a/=g/!8va)! | %132
 _g/=f/e/_e/d/_d/=c/B/_B/A/_A/=G/_G/=F/E/_E/ | %133
D/_D/=C/[I:staff +1]B,/_B,/A,/_A,/=G,/_G,/=F,/E,/_E,/D,/_D,/=C,/B,,/ | x9 | %135
[K:C][I:staff -1][K:bass] .B,,2 B,,2 .B,,2 B,,2 | .B,,2 .B,,2 B,,4 | x8 | %138
 x2 [C,=D,]2 .[C,^D,]2 [C,=D,]2 | .C,2 .[C,=D,]2 C,4 | x8 | ^C,2 C,2 .[C,E,]2 x2 | %142
 .[D,=F,]2 [D,E,]2 .[D,F,]2 x2 | x8 | x8 | x5/2[K:treble] x11/2 | x8 | x8 | x8 | %149
 x5/2!8va(! x/!8va)! x/!8va(! x/!8va)! x/!8va(! x/!8va)! x/!8va(! x/!8va)! x/!8va(! x/!8va)! x || %150
 x2 | x6!8va(! x2 | x2!8va)! x6 | x8 |!8va(! x6!8va)! x2 | x8 | x8 | x8 | x8 | x8 | x8 | %161
!8va(! x17/2 | x17/2 | x8 | x8 | x8 | x5!8va)! x5/2 || x/ | x8 | x8 | x8 | x8 | x8 | %173
!8va(! x16/5!8va)! x24/5 |!8va(! x16/5!8va)! x24/5 | x385/48 | x385/48 | x385/48 | x8 | %179
 x14/3!8va(! x10/3 | x8 | x3!8va)! x5 | x8 | x8 |!8va(! x8 | x8 | x8 | x8 | x8 | x8 | x4!8va)! x4 | %191
!8va(! x4!8va)! x4 | x4[K:bass] x4 |[K:treble] x4[K:bass] x4 |[K:treble]!8va(! x8!8va)! | x8 | x8 | %197
 x8 ||[K:A]!8va(! x2!8va)! [CEA][CEA] .[CEA]2!8va(! x2 | x8 | %200
 x2!8va)! [^EGc][EGc] .[EGc]2!8va(! x2 | x8 | x2!8va)! [A=c=f][Acf] .[Acf]2!8va(! x2 | x8 | x8 | %205
 x8 | x8 | x8 | x8 | x8 | x8 | x8!8va)! | x8 | x8 | x8 | x8 | x8 | x4!8va(! x4 | x8!8va)! | x8 | %220
 x8 | x4!8va(! x4 | x8 | x6!8va)! x2 |[K:bass] x8 | x4[K:treble] x5 |!8va(! x3!8va)! x6 |] %227

